Papirus/64x64/mimetypes/application-vnd.google-apps.form.svg

<?xml version="1.0" encoding="UTF-8" standalone="no"?>
<svg
   id="_图层_1"
   data-name="图层_1"
   version="1.1"
   viewBox="0 0 128 128"
   width="64"
   height="64"
   sodipodi:docname="application-vnd.google-apps.form.svg"
   xml:space="preserve"
   inkscape:version="1.4 (e7c3feb100, 2024-10-09)"
   xmlns:inkscape="http://www.inkscape.org/namespaces/inkscape"
   xmlns:sodipodi="http://sodipodi.sourceforge.net/DTD/sodipodi-0.dtd"
   xmlns="http://www.w3.org/2000/svg"
   xmlns:svg="http://www.w3.org/2000/svg"><sodipodi:namedview
     id="namedview3"
     pagecolor="#505050"
     bordercolor="#eeeeee"
     borderopacity="1"
     inkscape:showpageshadow="0"
     inkscape:pageopacity="0"
     inkscape:pagecheckerboard="0"
     inkscape:deskcolor="#505050"
     inkscape:zoom="10.6875"
     inkscape:cx="32"
     inkscape:cy="33.684211"
     inkscape:window-width="1920"
     inkscape:window-height="939"
     inkscape:window-x="0"
     inkscape:window-y="34"
     inkscape:window-maximized="1"
     inkscape:current-layer="_图层_1" /><!-- Generator: Adobe Illustrator 29.0.1, SVG Export Plug-In . SVG Version: 2.1.0 Build 192)  --><defs
     id="defs1"><style
       id="style1">
      .st0 {
        fill: #0071e9;
      }

      .st1 {
        fill: #fff;
      }

      .st2 {
        fill: #5aaaff;
        isolation: isolate;
        opacity: .5;
      }
    </style></defs><path
     class="st0"
     d="M18.2,0c-5.6,0-10.2,4.6-10.2,10.2v107.6c0,5.6,4.6,10.2,10.2,10.2h91.6c5.6,0,10.2-4.6,10.2-10.2V40.6L82.2,0H18.2Z"
     id="path1"
     style="fill:#764ebf;fill-opacity:1" /><path
     class="st2"
     d="m 82.761404,2.619883 v 29.2 c 0,3.2 2.145542,11.6 11.89801,11.6 h 24.966316 z"
     id="path2"
     style="fill:#5e3e99;fill-opacity:1;stroke-width:0.987546" /><path
     class="st2"
     d="M 82.116964,0.02339171 V 29.223392 c 0,3.2 2.2,11.6 12.2,11.6 h 25.599996 z"
     id="path2-3"
     style="opacity:1;isolation:isolate;fill:#b7a2dd;fill-opacity:1" /><g
     id="g1"
     transform="matrix(2.5401382,0,0,2.2889094,-17.190856,-9.0094388)"><path
       style="opacity:0.2"
       d="m 18,33 v 3 h 3 v -3 z m 6,0 v 3 h 22 v -3 z m -6,7 v 3 h 3 v -3 z m 6,0 v 3 h 22 v -3 z m -6,7 v 3 h 3 v -3 z m 6,0 v 3 h 22 v -3 z"
       id="path6" /><path
       style="fill:#ffffff"
       d="m 18,32 v 3 h 3 v -3 z m 6,0 v 3 h 22 v -3 z m -6,7 v 3 h 3 v -3 z m 6,0 v 3 h 22 v -3 z m -6,7 v 3 h 3 v -3 z m 6,0 v 3 h 22 v -3 z"
       id="path7" /></g></svg>

<svg xmlns="http://www.w3.org/2000/svg" width="64" height="64" version="1.1">
 <path style="opacity:0.2" d="M 12.75,5 C 11.2265,5 10,6.2488 10,7.8 v 50.4 c 0,1.55008 1.2265,2.8 2.75,2.8 h 38.5 C 52.7724,61 54,59.75008 54,58.2 V 23 L 40,19 36,5 Z"/>
 <path style="fill:#764ebf" d="M 12.75,4 C 11.2265,4 10,5.2488 10,6.8 v 50.4 c 0,1.55008 1.2265,2.8 2.75,2.8 h 38.5 C 52.7724,60 54,58.75008 54,57.2 V 22 L 40,18 36,4 Z"/>
 <path style="opacity:0.2" d="M 54,23 36,5 V 20.1875 C 36,21.74675 37.2555,23 38.8125,23 Z"/>
 <path style="fill:#b7a2dd" d="M 54,22 36,4 V 19.1875 C 36,20.74675 37.2555,22 38.8125,22 Z"/>
 <path style="opacity:0.2;fill:#ffffff" d="M 12.75 4 C 11.2265 4 10 5.2495812 10 6.8007812 L 10 7.8007812 C 10 6.2495813 11.2265 5 12.75 5 L 36 5 L 36 4 L 12.75 4 z"/>
 <path style="opacity:0.2" d="m 18,33 v 3 h 3 v -3 z m 6,0 v 3 h 22 v -3 z m -6,7 v 3 h 3 v -3 z m 6,0 v 3 h 22 v -3 z m -6,7 v 3 h 3 v -3 z m 6,0 v 3 h 22 v -3 z"/>
 <path style="fill:#ffffff" d="M 18 32 L 18 35 L 21 35 L 21 32 L 18 32 z M 24 32 L 24 35 L 46 35 L 46 32 L 24 32 z M 18 39 L 18 42 L 21 42 L 21 39 L 18 39 z M 24 39 L 24 42 L 46 42 L 46 39 L 24 39 z M 18 46 L 18 49 L 21 49 L 21 46 L 18 46 z M 24 46 L 24 49 L 46 49 L 46 46 L 24 46 z"/>
</svg>
